X:66
%%scale 0.6
M:4/4
K:Dmaj
|:(3ABc|dABF A2Bc|dcde f2AF|GBAF GBAG|FEDF E2de|fdAF BAFA|dcde f2AF|GBAF GBAG|F2D2 D2:|
|:Ad|fdef g2fg|agfa g2fe|dBB2 A2ag|fedf e2Ad|fdef g2fg|agfa g2fe|dBB2 A2AG|F2D2 D2:|